build/svg/cmd/lc_euroconverter.svg

<?xml version="1.0" encoding="UTF-8" standalone="no"?>
<svg
   xmlns:dc="http://purl.org/dc/elements/1.1/"
   xmlns:cc="http://creativecommons.org/ns#"
   xmlns:rdf="http://www.w3.org/1999/02/22-rdf-syntax-ns#"
   xmlns:svg="http://www.w3.org/2000/svg"
   xmlns="http://www.w3.org/2000/svg"
   xmlns:sodipodi="http://sodipodi.sourceforge.net/DTD/sodipodi-0.dtd"
   xmlns:inkscape="http://www.inkscape.org/namespaces/inkscape"
   viewBox="0 0 24 24"
   version="1.1"
   id="svg4"
   sodipodi:docname="lc_euroconverter.svg"
   inkscape:export-filename="/home/jupiter007/Libreoffice yaru theme fullcolor/build/cmd/lc_euroconverter.png"
   inkscape:export-xdpi="96"
   inkscape:export-ydpi="96"
   inkscape:version="0.92.5 (2060ec1f9f, 2020-04-08)">
  <metadata
     id="metadata10">
    <rdf:RDF>
      <cc:Work
         rdf:about="">
        <dc:format>image/svg+xml</dc:format>
        <dc:type
           rdf:resource="http://purl.org/dc/dcmitype/StillImage" />
      </cc:Work>
    </rdf:RDF>
  </metadata>
  <defs
     id="defs8" />
  <sodipodi:namedview
     pagecolor="#ffffff"
     bordercolor="#666666"
     borderopacity="1"
     objecttolerance="10"
     gridtolerance="10"
     guidetolerance="10"
     inkscape:pageopacity="0"
     inkscape:pageshadow="2"
     inkscape:window-width="1920"
     inkscape:window-height="1011"
     id="namedview6"
     showgrid="true"
     inkscape:zoom="32"
     inkscape:cx="13.516527"
     inkscape:cy="8.0710436"
     inkscape:window-x="0"
     inkscape:window-y="32"
     inkscape:window-maximized="1"
     inkscape:current-layer="svg4">
    <inkscape:grid
       type="xygrid"
       id="grid817" />
  </sodipodi:namedview>
  <path
     id="path837"
     d="M 15.5,5 A 8.5,7.5 0 0 0 7.1816406,11 H 5 v 1 H 7.0195312 A 8.5,7.5 0 0 0 7,12.5 8.5,7.5 0 0 0 7.0292969,13 H 5 v 1 H 7.171875 A 8.5,7.5 0 0 0 15.5,20 8.5,7.5 0 0 0 18.255859,19.585938 L 17.521484,17.720703 A 6.5,5.5 0 0 1 15.5,18 6.5,5.5 0 0 1 9.2480469,14 H 14 V 13 H 9.03125 A 6.5,5.5 0 0 1 9,12.5 6.5,5.5 0 0 1 9.0292969,12 H 15 V 11 H 9.2539062 A 6.5,5.5 0 0 1 15.5,7 6.5,5.5 0 0 1 16.955078,7.1445312 L 17.472656,5.2148438 A 8.5,7.5 0 0 0 15.5,5 Z"
     style="opacity:0.6;fill:#000000;fill-opacity:1;stroke:#000000;stroke-width:2;stroke-linejoin:round;stroke-miterlimit:4;stroke-dasharray:none;stroke-opacity:1"
     inkscape:connector-curvature="0" />
  <path
     style="opacity:1;fill:#ffffff;fill-opacity:1;stroke:none;stroke-width:3;stroke-linejoin:round;stroke-miterlimit:4;stroke-dasharray:none;stroke-opacity:1"
     d="M 15.5,5 A 8.5,7.5 0 0 0 7.1816406,11 H 5 v 1 H 7.0195312 A 8.5,7.5 0 0 0 7,12.5 8.5,7.5 0 0 0 7.0292969,13 H 5 v 1 H 7.171875 A 8.5,7.5 0 0 0 15.5,20 8.5,7.5 0 0 0 18.255859,19.585938 L 17.521484,17.720703 A 6.5,5.5 0 0 1 15.5,18 6.5,5.5 0 0 1 9.2480469,14 H 14 V 13 H 9.03125 A 6.5,5.5 0 0 1 9,12.5 6.5,5.5 0 0 1 9.0292969,12 H 15 V 11 H 9.2539062 A 6.5,5.5 0 0 1 15.5,7 6.5,5.5 0 0 1 16.955078,7.1445312 L 17.472656,5.2148438 A 8.5,7.5 0 0 0 15.5,5 Z"
     id="path824"
     inkscape:connector-curvature="0" />
</svg>

<svg xmlns="http://www.w3.org/2000/svg" viewBox="0 0 24 24"><path d="M15.5 5a8.5 7.5 0 00-8.318 6H5v1h2.02a8.5 7.5 0 00-.02.5 8.5 7.5 0 00.03.5H5v1h2.172a8.5 7.5 0 008.328 6 8.5 7.5 0 002.756-.414l-.735-1.865A6.5 5.5 0 0115.5 18a6.5 5.5 0 01-6.252-4H14v-1H9.031A6.5 5.5 0 019 12.5a6.5 5.5 0 01.03-.5H15v-1H9.254A6.5 5.5 0 0115.5 7a6.5 5.5 0 011.455.145l.518-1.93A8.5 7.5 0 0015.5 5z" opacity=".6" stroke="#000" stroke-width="2" stroke-linejoin="round"/><path d="M15.5 5a8.5 7.5 0 00-8.318 6H5v1h2.02a8.5 7.5 0 00-.02.5 8.5 7.5 0 00.03.5H5v1h2.172a8.5 7.5 0 008.328 6 8.5 7.5 0 002.756-.414l-.735-1.865A6.5 5.5 0 0115.5 18a6.5 5.5 0 01-6.252-4H14v-1H9.031A6.5 5.5 0 019 12.5a6.5 5.5 0 01.03-.5H15v-1H9.254A6.5 5.5 0 0115.5 7a6.5 5.5 0 011.455.145l.518-1.93A8.5 7.5 0 0015.5 5z" fill="#fff"/></svg>
